!!!OTL: Thanayi
!!!XEN: No, Child
!!!CNT: African -- sub-Saharan -- Xhosa
**kern
*k[]
*M4/4
*MM144
8g
8g
8g
8f
=1
2.g
8f
8e-
=2
8c
8en
4d
(8c
8d)
[4G
=3
1G]
=4
2r
8g
8a
8b
8f
=5
2.g
8f
16g
16e-
=6
8c
8en
4d
(8c
8d)
[4G
=7
1G]
=8
1r
!! Repeat the next section.
=9
4r
4cc
2cc
=10
8b
[8a
8a]
8f
4f
4f
=11
8e
8d
4d
8g
8g
4g
=12
8a
[8g
2.g]
!! Repeating.
=13
4r
4cc
2cc
=14
8b
[8a
8a]
8f
4f
4f
=15
8e
8d
4d
8g
8g
4g
=16
8a
[8g
2.g]
!! Repeat the following section.
=17
4r
8g
[8g
4g]
4c
=18
8f
8e
8d
[8d
8d]
8d
8d
8d
=19
4r
8g
4b-
4b-
8g
=20
4.g
[8e
4e]
4r
!! Repeating.
=21
4r
8g
[8g
4g]
4c
=22
8f
8e
8d
[8d
8d]
8d
8d
8d
=23
4r
8g
4b-
4b-
8g
=24
4.g
[8e
4e]
4r
!! Continuing.
=25
4r
4cc
2cc
=26
4r
8g
[8a
8a]
8f
4f
=27
4r
4dd
4.dd
8g
=28
4a
2e
4r
=29
4r
8cc
[8dd
8dd]
8cc
4cc
=30
8dd
8cc
2a
4r
=31
4r
8cc
[8dd
8dd]
8cc
[4cc
=32
2cc]
2r
=33
4r
8g
[8c
4c]
8c
8f
=34
4.g
8f
8f
8f
8f
8f
=35
4r
8a
8a
4a
4f
=36
4.g
[8e
4e]
4r
=37
4r
8g
[8c
4c]
8c
8f
=38
4.g
8f
8f
8f
8f
8f
=39
4r
8a
8a
4a
4f
=40
4.g
[8e
4e]
4r
=41
4r
4r
!! Da Capo al Segno.
8g
8g
8g
8f
=42
2.g
8f
8e-
=43
8c
8en
4d
(8c
8d)
[4G
=44
1G]
=45
2r
8g
8a
8b
8f
=46
2.g
8f
16g
16e-
=47
8c
8en
4d
(8c
8d)
[4G
=48
1G]
=49
1r
!! To Coda.
=50
4cc
4r
2r
==
*-
!!!OPR: Miriam Makeba, "The World of African Song"
!!!PPP: Chicago
!!!PPR: Quadrangle Press (12 East Delaware Place)
!!!PDT: 1971///
!!!PPG: 113
!!!ENC: David Huron
!!!EMD: 1998/9/29/ Paul von Hippel updated this file in the following ways:
!!!EMD:  (1) changed the representation of slurs from curly braces to parentheses 
!!!EMD:  (2) changed freeform comments into reference records and tandem interpretations
!!!EMD:  (3) changed final barline from triple (===) to double (==)
!!!EMD:  (4) added key signature from printed source
!!!EEV: Version 2.0
